assets/icons/zoom/original-filled.svg

<?xml version="1.0" encoding="UTF-8" standalone="no"?>
<svg
   viewBox="0 0 24 24"
   height="24"
   width="24"
   version="1.1"
   id="svg8"
   sodipodi:docname="original-filled.svg"
   inkscape:version="1.2 (1:1.2.1+202207142221+cd75a1ee6d)"
   xmlns:inkscape="http://www.inkscape.org/namespaces/inkscape"
   xmlns:sodipodi="http://sodipodi.sourceforge.net/DTD/sodipodi-0.dtd"
   xmlns="http://www.w3.org/2000/svg"
   xmlns:svg="http://www.w3.org/2000/svg">
  <defs
     id="defs12" />
  <sodipodi:namedview
     id="namedview10"
     pagecolor="#ffffff"
     bordercolor="#666666"
     borderopacity="1.0"
     inkscape:pageshadow="2"
     inkscape:pageopacity="0.0"
     inkscape:pagecheckerboard="0"
     showgrid="true"
     inkscape:snap-page="true"
     inkscape:zoom="28"
     inkscape:cx="14.392857"
     inkscape:cy="13.321429"
     inkscape:window-width="1920"
     inkscape:window-height="1043"
     inkscape:window-x="0"
     inkscape:window-y="0"
     inkscape:window-maximized="1"
     inkscape:current-layer="svg8"
     inkscape:showpageshadow="2"
     inkscape:deskcolor="#d1d1d1">
    <inkscape:grid
       type="xygrid"
       id="grid823" />
    <inkscape:grid
       type="xygrid"
       id="grid825"
       dotted="true"
       spacingx="0.5"
       spacingy="0.5"
       empspacing="10" />
  </sodipodi:namedview>
  <path
     id="path860"
     style="color:#000000;fill:#808080;fill-opacity:1;-inkscape-stroke:none"
     d="M 6.7871094 4 C 6.1101642 4.0055872 5.5365068 4.0481528 5.0273438 4.3027344 C 4.6879018 4.4724554 4.3973384 4.7651684 4.2304688 5.140625 C 4.0635992 5.5160816 4 5.9583344 4 6.5 L 4 17.5 C 4 18.041665 4.0635992 18.483918 4.2304688 18.859375 C 4.3973384 19.234832 4.6879018 19.527544 5.0273438 19.697266 C 5.7062279 20.036707 6.500002 20 7.5 20 L 16.5 20 C 17.499998 20 18.293772 20.036709 18.972656 19.697266 C 19.312099 19.527544 19.602661 19.234832 19.769531 18.859375 C 19.936401 18.483918 20 18.041665 20 17.5 L 20 6.5 C 20 5.9583344 19.9364 5.5160816 19.769531 5.140625 C 19.602661 4.7651684 19.312099 4.4724554 18.972656 4.3027344 C 18.293772 3.9632923 17.499998 4 16.5 4 L 7.5 4 C 7.2500005 4 7.0127578 3.9981376 6.7871094 4 z M 12 8 L 13 8 L 13 16 L 12 16 L 12 9.8222656 C 11.256486 10.544463 10.435023 11.020292 9.4902344 11 L 9.5097656 10 C 10.302151 10.017018 11.138905 9.4031151 12 8.3261719 L 12 8 z " />
</svg>

<svg height="24" width="24" xmlns="http://www.w3.org/2000/svg"><path style="color:#000;fill:gray;fill-opacity:1;-inkscape-stroke:none" d="M6.787 4c-.677.006-1.25.048-1.76.303-.34.17-.63.462-.797.838C4.064 5.516 4 5.958 4 6.5v11c0 .542.064.984.23 1.36.167.375.458.668.797.837.68.34 1.473.303 2.473.303h9c1 0 1.794.037 2.473-.303.34-.17.63-.462.797-.838.166-.375.23-.817.23-1.359v-11c0-.542-.064-.984-.23-1.36a1.72 1.72 0 0 0-.797-.837C18.293 3.963 17.5 4 16.5 4h-9c-.25 0-.487-.002-.713 0zM12 8h1v8h-1V9.822c-.744.722-1.565 1.198-2.51 1.178l.02-1c.792.017 1.629-.597 2.49-1.674V8z"/></svg>
